X:10
T:Ryan MacDonald
R:jig
C:Paul S. Cranford
O:20th Century Cape Breton
D:The Lighthouse, Cranford Publications
B:The Lighthouse Collection, ISBN 0-9691181-5-5
N:Contacts ...
N:..... Cranford Publications <http://www.cranfordpub.com>
H:Composed for North Shore piper Ryan MacDonald
Z:This abc transcription is for personal use only,
Z:provided this notice remains attached.
Z:Used by permission of the composer and publisher.
Z:Paul Stewart Cranford 
L:1/8
Q:312
M:6/8
K:D
A|B3 AFE|DFA d2e|fdB AFA|BGE E2 A|!
BdB AFE|DFA d2e|fdB AFd|AFD D2:|!
e|fdB AFA|BdB AFA|fdB AFA|[1BGE E2e|!
fdB AFA|(B/c/d)B AFA|B3 AFd AFD D2:|!
[2BGE E(3(efg)|afd ecA|BGE AFA|B3 AdB|AFD D2|]!
